X:100
T: Jack in the Garret
N: O'Farrell's Pocket Companion v.2 (Sky ed. p.57)
N: "Irish"
M: 6/8
L: 1/8
R: jig
Q: 320
K: D
d/B/|AFD DED|GFE FGA|B3 AGF|GFG Edc|
AFD DED|GFE FGA|Bcd ABG|FGF D2 :|
A|dcd efg|fed edc|dcd efg|fdB B2A|
dcd efg|fed edc|Bcd ABG|FGE D2 :|
f/g/|afd ded|gfe fga|b3 agf|gfg efg|
afd ded|gfe fga|Bcd efg|fge d2 :|
